X:6240
T:St. Joe Hornpipe
O:england
M:2/4
L:1/16
Q:122
S:from Cyril Stinnett
A:Missuori
B:transcribed as #45 in OTFR
N:the title likely refers to the northwest Missouri city of St. Josehp
D:taken from a recording of Cyril Stinnett in September, 1979
K:Bb
(FGA|B2)d(f b2)b(f|a2g2 (ga)ge|(Ac)ef a2(=ef|g2)f(=e fg)fc|
(Bc)df b2b(f|a2)g2 (g^fg)=e|(fa)gf =e(cA)c|B2(3cBA) B2:|
|:[B,2D2]|[B,2D2]DF B2Bc|(dcd)e (dc)A(B|cd)c(B A)FGA|(BAB)(c dBFD|
[B,2D2]DF (BAB)c|(dcd)e (dc)A(B|cd)c(B A)FG(A|Bd)cA B2:|
